X: 7866
T: Compliments To Hugh Hughson Of Newcastle
R: reel
M: 4/4
K: Dmajor
dA|:BAFA DEFD|EFEDB,2A,B,|DEFA Bdfa|bafd e2de|
faef defe|dBAF GEDB,|A,B,DE faba|1 faef d3A:|2 faef d2fg||
|:afdf Adfg|abaf bgfd|gec'e Aceg|geag agec|
afdf Adfg|abaf bgfd|gecA GECA,|1 D2FA d2fg:|2 D2FA D2||

